icon-themes/breeze_svg/cmd/32/deleteannotation.svg

<svg viewBox="0 0 32 32" xmlns="http://www.w3.org/2000/svg"><path d="m4 5v16l6 6v-6h7v-1h-12v-14h22v11h1v-12zm14.714844 13c-.0255.0126-.714844.714844-.714844.714844l4.285156 4.285156-4.285156 4.285156.714844.714844 4.285156-4.285156 4.285156 4.285156.714844-.714844-4.285156-4.285156 4.285156-4.285156-.714844-.714844-4.285156 4.285156z" fill="#f47750"/></svg>

<svg xmlns="http://www.w3.org/2000/svg" viewBox="0 0 32 32">
 <path 
     style="fill:#f47750" 
     d="M 4 5 L 4 21 L 10 27 L 10 21 L 17 21 L 17 20 L 5 20 L 5 6 L 27 6 L 27 17 L 28 17 L 28 5 L 4 5 z M 18.714844 18 C 18.689344 18.0126 18 18.714844 18 18.714844 L 22.285156 23 L 18 27.285156 L 18.714844 28 L 23 23.714844 L 27.285156 28 L 28 27.285156 L 23.714844 23 L 28 18.714844 L 27.285156 18 L 23 22.285156 L 18.714844 18 z "
     />
</svg>
